Adwaita++/apps/16/synapse.svg

<svg height="16" width="16" xmlns="http://www.w3.org/2000/svg">
  <path d="m7.6472095 11.113062c1.7731525 0 3.2105715-1.4303269 3.2105715-3.2105712 0 0 .02131-.3015818-.07099-.6421085h-4.9305137c.1331066-.3718138.3718509-.7053965.6960352-.9280599.745855-.5888508 1.875431-.3747252 2.5107685.2859435h1.526279c-.495637-1.1334009-1.6260115-1.9263469-2.9421805-1.9263469-1.7731523 0-3.2105709 1.4374189-3.2105709 3.2105718 0 0 0 .3299596.063858.6421085h4.9326054c-.277559.7015787-.9403595 1.2701075-1.7106435 1.276712-.03854.00213-.07694.00213-.115369.00142-.516354-.0104689-1.017386-.2553306-1.3657535-.6358369h-1.5363068c.4956496 1.1334016 1.6260242 1.9263476 2.9421833 1.9263476zm.694291 4.886918.03578-2.311101c2.3899625-.297872 4.3307075-2.041635 4.9192815-4.3284021h-1.512088c-.620115 1.6506211-2.262038 2.9379521-4.0564435 2.9259441-.04349.0014-.08756.0021-.13099.0014-.651486-.0036-1.2918633-.16563-1.8723199-.455609-1.0455392-.470625-1.8218665-1.40075-2.2012235-2.4717227h-1.5234853c.5885881 2.2867737 2.5293285 4.0305297 4.9192887 4.3283957v2.311115zm4.9550395-9.5554753c-.588573-2.2867731-2.52932-4.0305301-4.9192795-4.3284024v-2.1161023h-1.457986v2.1161023c-2.3899529.2978723-4.330701 2.0416293-4.9192745 4.3284024h1.5021246c.5894026-1.7387386 2.4111169-2.9891084 4.2529339-2.9245189 1.7932555-.00909 3.4200145 1.2719849 4.0265505 2.9245189z" fill="#444"/>
</svg>

<svg xmlns="http://www.w3.org/2000/svg" width="16" height="16" version="1.1">
 <path fill="#444" d="m 7.6472095,11.113062 c 1.7731525,0 3.2105715,-1.4303269 3.2105715,-3.2105712 0,0 0.02131,-0.3015818 -0.07099,-0.6421085 H 5.8562773 C 5.9893839,6.8885685 6.2281282,6.5549858 6.5523125,6.3323224 7.2981675,5.7434716 8.4277435,5.9575972 9.063081,6.6182659 H 10.58936 C 10.093723,5.484865 8.9633485,4.691919 7.6471795,4.691919 c -1.7731523,0 -3.2105709,1.4374189 -3.2105709,3.2105718 0,0 0,0.3299596 0.063858,0.6421085 H 9.433072 C 9.155513,9.246178 8.4927125,9.8147068 7.7224285,9.8213113 c -0.03854,0.00213 -0.07694,0.00213 -0.115369,0.00142 C 7.0907055,9.8122624 6.5896735,9.5674007 6.241306,9.1868944 H 4.7049992 c 0.4956496,1.1334016 1.6260242,1.9263476 2.9421833,1.9263476 z m 0.694291,4.886918 0.03578,-2.311101 C 10.767243,13.391007 12.707988,11.647244 13.296562,9.3604769 h -1.512088 c -0.620115,1.6506211 -2.262038,2.9379521 -4.0564435,2.9259441 -0.04349,0.0014 -0.08756,0.0021 -0.13099,0.0014 -0.651486,-0.0036 -1.2918633,-0.16563 -1.8723199,-0.455609 C 4.6791814,11.361587 3.9028541,10.431462 3.5234971,9.3604893 H 2.0000118 C 2.5885999,11.647263 4.5293403,13.391019 6.9193005,13.688885 V 16 Z M 13.29654,6.4445047 C 12.707967,4.1577316 10.76722,2.4139746 8.3772605,2.1161023 V 0 H 6.9192745 V 2.1161023 C 4.5293216,2.4139746 2.5885735,4.1577316 2,6.4445047 H 3.5021246 C 4.0915272,4.7057661 5.9132415,3.4553963 7.7550585,3.5199858 9.548314,3.5108958 11.175073,4.7919707 11.781609,6.4445047 Z"/>
</svg>
